X: 9185
T: Daly's
R: reel
M: 4/4
K: Gmajor
(3DEF|:G2 BA GD~D2|B,DGB cBAG|F2 AG FD~D2|CEAB cAFA|
G2 BA GD~D2|GABG cBAG|F2 AG FDEF|1 G~G AF G2 (3DEF:|2 G~G AF G ggf||
|:e~e3 ecAG|E~E2F GABc|d^cde dBGE|D~D2E _FDB,D|
CEABc2zD|B,DGA B2z2|AFAB cAFA|1 G~GFA G ggf:|2 G~GFA G2 (3DEF||

